X:1904
T:Farmer's Daughter, The
O:england
M:4/4
L:1/8
R:Reel
K:D
AB|"D"d2 de f2 ef|"D"d2 dB d2 AB|"D"d2 de f2 ef|"A"AAeA cAAB|"D"d2 de f2
ef|"D"dedB d2 dg|"D"fgag f2 ef|"A"AAeA cA:||:AB|"Bm"d2 f2 B2 BB|"Bm"cBf
B cBBc|"Bm"d2 e2 "A"A2 eA|"A"cAeA cAAc|"Bm"d2 f2 B2 BB|"Bm"cBfB cBBg|"D"
fgag f2 ef|"A"AAeA cA:||
